src/assets/icons/settings.svg

<?xml version="1.0" encoding="UTF-8" standalone="no"?>
<svg
   xmlns:dc="http://purl.org/dc/elements/1.1/"
   xmlns:cc="http://creativecommons.org/ns#"
   xmlns:rdf="http://www.w3.org/1999/02/22-rdf-syntax-ns#"
   xmlns:svg="http://www.w3.org/2000/svg"
   xmlns="http://www.w3.org/2000/svg"
   xmlns:sodipodi="http://sodipodi.sourceforge.net/DTD/sodipodi-0.dtd"
   xmlns:inkscape="http://www.inkscape.org/namespaces/inkscape"
   inkscape:version="1.0 (4035a4fb49, 2020-05-01)"
   sodipodi:docname="HtfWq8TKUJ.svg"
   id="svg8"
   preserveAspectRatio="xMidYMid meet"
   viewBox="0 0 284.21777 283.90866"
   height="283.90866pt"
   width="284.21777pt"
   version="1.0">
  <defs
     id="defs12" />
  <sodipodi:namedview
     inkscape:current-layer="svg8"
     inkscape:window-maximized="1"
     inkscape:window-y="-8"
     inkscape:window-x="-8"
     inkscape:cy="207.34115"
     inkscape:cx="159.82744"
     inkscape:zoom="2.625"
     showgrid="false"
     id="namedview10"
     inkscape:window-height="1377"
     inkscape:window-width="2560"
     inkscape:pageshadow="2"
     inkscape:pageopacity="0"
     guidetolerance="10"
     gridtolerance="10"
     objecttolerance="10"
     borderopacity="1"
     bordercolor="#666666"
     pagecolor="#ffffff" />
  <metadata
     id="metadata2">
Created by potrace 1.10, written by Peter Selinger 2001-2011
<rdf:RDF>
  <cc:Work
     rdf:about="">
    <dc:format>image/svg+xml</dc:format>
    <dc:type
       rdf:resource="http://purl.org/dc/dcmitype/StillImage" />
  </cc:Work>
</rdf:RDF>
</metadata>
  <g
     id="g6"
     stroke="none"
     fill="#000000"
     transform="matrix(0.1,0,0,-0.1,-2.0546347,285.71099)">
    <path
       sodipodi:nodetypes="ccccccccccccccccccccccccccccccccccccccccc"
       id="path4"
       d="m 1073,2844 c -16,-3 -59,-17 -98,-30 -38,-14 -123,-42 -187,-64 C 595,2686 593,2684 629,2590 735,2311 614,2158 343,2230 233,2259 243,2268 145,2050 119,1992 80,1907 59,1861 3,1741 5,1730 86,1685 330.90947,1558.5799 322.36586,1337.8403 73,1209 -14.288919,1158.985 30.345915,1099.8335 59,1020 76,973 113,866 142,781 193.54374,657.84782 174.89693,586.43799 293,627 574.7943,745.57003 731.10443,556.37918 660,343 631,232 621,243 850,140 c 63,-28 154,-69 201,-91 103.3509,-45.949159 111.8834,-46.8599537 169,39 119.524,218.25404 325.8544,208.47583 450,-1 63.6357,-96.1309614 88.8935,-74.4798 169,-38 47,22 138,63 201,91 130.3752,57.63369 223.4615,70.27018 190,203 -57.5548,295.64357 98.2004,398.99944 360,286 94,-36 96,-34 160,159 22,64 51,149 64,187 14,39 26,78 26,87 92.1047,172.0513 -121.2884,205.239 -186,310 -43,83 -26,175 43,240 164.3814,104.7884 198.0413,101.2495 124,268 -28,66 -115,259 -143,317 -12,23 -30,44 -40,46 -11,3 -52,-3 -91,-13 -312.4196,-60.5724 -437.5592,64.1236 -284,367 17,49 16.8571,69.1429 -16.8571,90 -11,17 -330.1429,134 -428.1429,157 -131.2475,34.9522 -108.1722,9.1113 -224,-190 -84,-86 -214,-86 -298,0 -99.2692,125.6476 -79.2896,241.0866 -223,190 z m 988.5888,-1340.9087 c 0,-480.7589 -308.4829,-659.11161 -593.4416,-659.11161 C 1069.0369,843.97969 830,1070.5895 830,1393 c 0,398.0891 216.1633,661.1996 610,666 462.7155,0 621.5888,-283.3748 621.5888,-555.9087 z" />
  </g>
</svg>

<svg width="284.22pt" height="283.91pt" version="1.0" viewBox="0 0 284.22 283.91" xmlns="http://www.w3.org/2000/svg">
 <g transform="matrix(.1 0 0 -.1 -2.0546 285.71)">
  <path d="m1073 2844c-16-3-59-17-98-30-38-14-123-42-187-64-193-64-195-66-159-160 106-279-15-432-286-360-110 29-100 38-198-180-26-58-65-143-86-189-56-120-54-131 27-176 244.91-126.42 236.37-347.16-13-476-87.289-50.015-42.654-109.17-14-189 17-47 54-154 83-239 51.544-123.15 32.897-194.56 151-154 281.79 118.57 438.1-70.621 367-284-29-111-39-100 190-203 63-28 154-69 201-91 103.35-45.949 111.88-46.86 169 39 119.52 218.25 325.85 208.48 450-1 63.636-96.131 88.894-74.48 169-38 47 22 138 63 201 91 130.38 57.634 223.46 70.27 190 203-57.555 295.64 98.2 399 360 286 94-36 96-34 160 159 22 64 51 149 64 187 14 39 26 78 26 87 92.105 172.05-121.29 205.24-186 310-43 83-26 175 43 240 164.38 104.79 198.04 101.25 124 268-28 66-115 259-143 317-12 23-30 44-40 46-11 3-52-3-91-13-312.42-60.572-437.56 64.124-284 367 17 49 16.857 69.143-16.857 90-11 17-330.14 134-428.14 157-131.25 34.952-108.17 9.1113-224-190-84-86-214-86-298 0-99.269 125.65-79.29 241.09-223 190zm988.59-1340.9c0-480.76-308.48-659.11-593.44-659.11-399.11 0-638.15 226.61-638.15 549.02 0 398.09 216.16 661.2 610 666 462.72 0 621.59-283.37 621.59-555.91z"/>
 </g>
</svg>
